X: 800
T: O'Carolan's Farewell to Music
R:
C:O'Carolan
B:O'Neill's 700
D:
Z: 1997 by John Chambers <jc@trillian.mit.edu>
N:"With feeling."
M:C
L:1/8
K:Am
(AB) | c2(BA G2)(AB) | c2(BA G2)(cd) | e2(de) c2(BA) | (A4G2) (de) |
     | f2(fg) e2(ef) | (d^cde) (a3^g) | (a=g)(ed (c)A)(B^G) | A4 A2 :|
|| e2 | (gede) (g2(ga)) | (ge)(de) g2e2 | (a^gab) (a=geg) | b4 (ab)(ag) |
      | ^f2(fg) e2(e=f) | (d^cde) (a3^g) | (a=g)(ed (c)A)(B^G) | A4 A2 |]
